src/assets/sidebarArrowReverse.svg

<svg width="170" height="53" viewBox="0 0 170 53" fill="none" xmlns="http://www.w3.org/2000/svg">
<path d="M4.69797 52V34.5C4.69797 30.0817 8.27969 26.5 12.698 26.5H77C81.4183 26.5 85 22.9183 85 18.5V1M4.69797 52L7.7093 47.75M4.69797 52L1.68665 47.75" stroke="white" stroke-width="2" stroke-linecap="round" stroke-linejoin="round"/>
<path d="M165.302 52V34.5C165.302 30.0817 161.72 26.5 157.302 26.5H92.9999C88.5816 26.5 84.9999 22.9183 84.9999 18.5V1M165.302 52L162.291 47.75M165.302 52L168.313 47.75" stroke="white" stroke-width="2" stroke-linecap="round" stroke-linejoin="round"/>
</svg>

<svg fill="none" viewBox="0 0 170 53" xmlns="http://www.w3.org/2000/svg"><path d="M4.698 52V34.5a8 8 0 0 1 8-8H77a8 8 0 0 0 8-8V1M4.698 52l3.011-4.25M4.698 52l-3.011-4.25" stroke="#fff" stroke-linecap="round" stroke-linejoin="round" stroke-width="2"/><path d="M165.3 52V34.5a8 8 0 0 0-8-8H92.998a8 8 0 0 1-8-8V1M165.3 52l-3.011-4.25M165.3 52l3.011-4.25" stroke="#fff" stroke-linecap="round" stroke-linejoin="round" stroke-width="2"/></svg>
